!!!!SEGMENT: pl-kk--kk-i-386--002-002_anonim--missa-seconda-kyrie.krn
!!!cenid: 18xx:4509
!!!COM: Anonim
!!!COM-rismID: pe30004985
!!!CDT:
!!!CNT:
!!!OPR: Missa seconda
!!!OTL: Kyrie
!!!OMV: 002
!!!PDT:
!!!AGN: Sacred
!!!YEC: Copyright 2022 Narodowy Instytut Fryderyka Chopina (https://polishscores.org)
!!!YEM: License CC-BY-4.0 (https://creativecommons.org/licenses/by/4.0)
!!!SMS-siglum: PL-Kk
!!!SMS-shelfmark: Kk.I.386
!!!SMS-variant:
!!!SMS-altvar:
!!!SMS-shelfwork: 002-002 M
!!!NIFC-rismSourceID: 1001218240
!!!NIFC-rismChildID: 1001218243
!!!NIFC-islandoraID: pl-kk:16060
!!!URL-pdf-islandora: https://repozytorium.nifc.pl/islandora/object/pl-kk%3A16060/datastream/PDF/view
!!!URL-scan: https://polish.musicsources.pl/pl/lokalizacje/galeria/rekopisy/7134/3 @EN{Scan on Polish Music Sources Website} @PL{Skany w portalu Dziedzictwo Muzyki Polskiej w otwartym dostępie}
!!!IIIF:
!!!ONB-nifc: UWAGA: Części Missy Seconda: Rorate, Kyrie, Gloria, Graduale, Offertorium, Sanctus, Benedicuts, Agnus. Zakres skanów: S – 6-9, A – 15-19, T – 25-29, B – 35-39
!!!AIN: 1 alto 1 bass 1 soprn 1 tenor
!!!key:
**kern	**text	**dynam	**kern	**text	**kern	**text	**kern	**text
*part4	*part4	*part4	*part3	*part3	*part2	*part2	*part1	*part1
*staff4	*staff4	*	*staff3	*staff3	*staff2	*staff2	*staff1	*staff1
*I"Basso	*	*	*I"Tenore.	*	*I"Alto.	*	*I"Soprano.	*
*I'B.	*	*	*I'T.	*	*I'A.	*	*I'S.	*
*Ibass	*	*	*Itenor	*	*Ialto	*	*Isoprn	*
*ICvox	*	*	*ICvox	*	*ICvox	*	*ICvox	*
*clefF4	*	*	*clefC4	*	*clefC3	*	*clefC1	*
*k[b-]	*	*	*k[b-]	*	*k[b-]	*	*k[b-]	*
*F:	*	*	*F:	*	*F:	*	*F:	*
*M2/2	*	*	*M2/2	*	*M2/2	*	*M2/2	*
*met(c|)	*	*	*met(c|)	*	*met(c|)	*	*met(c|)	*
=1	=1	=1	=1	=1	=1	=1	=1	=1
!	!	!	!	!	!LO:TX:a:t=Andante Sostenuto.	!	!LO:TX:a:t=in F.	!
!LO:TX:a:t=in F.	!	!LO:DY:b	!LO:TX:a:t=in F.	!	!LO:TX:a:t=in F.	!	!	!
8.F\	Ky-	p	8.A\	Ky-	4.a\	Ky-	4.cc\	Ky-
16F\	-ri-	.	16A\	-ri-	.	.	.	.
4F\	-e	.	4A\	-e	.	.	.	.
.	.	.	.	.	8a\	-ri-	8ff\	-ri-
2r	.	.	2r	.	8.f\L	-e	8.a\L	-e
.	.	.	.	.	16a\Jk	.	16cc\Jk	.
.	.	.	.	.	8.g\L	e-	8.bn\L	e-
.	.	.	.	.	16b-\Jk	.	16dd\Jk	.
=2	=2	=2	=2	=2	=2	=2	=2	=2
4r	.	.	4r	.	8g#X\L	-lei-	8bn\L	-lei-
.	.	.	.	.	8a\J	.	8cc\J	.
8.F\	Ky-	.	8.A\	Ky-	4a\	-son,	4cc\	-son
16F\	-ri-	.	16A\	-ri-	.	.	.	.
4F\	-e	.	4A\	-e	4r	.	4r	.
4r	.	.	4r	.	4a\	e-	4ff\	e-
=3	=3	=3	=3	=3	=3	=3	=3	=3
8.C/	Ky-	.	8.G/	Ky-	4a\	-le-	4ff\	-le-
16C/	-ri-	.	16G/	-ri-	.	.	.	.
4C/	-e	.	4G/	-e	8gn\L	-i-	8ee\L	.
.	.	.	.	.	8b-\J	.	8dd\J	.
4r	.	.	4r	.	4a\	-son	8cc\L	.
.	.	.	.	.	.	.	8cc#X\J	.
4C/	e-	.	4G/	e-	8b-\L	e-	8dd\L	.
.	.	.	.	.	8g\J	.	8b-\J	-i-
!LO:LB:g=original	!	!	!	!	!LO:LB:g=original	!	!	!
=4	=4	=4	=4	=4	=4	=4	=4	=4
4F\	-lei-	.	4c\	-lei-	4g\	-lei-	4b-\	-son,
4C/	.	.	4c\	-son	4f\	-son	4a\	.
!	!	!	!	!	!	!	!LO:LB:g=original	!
4FF/	-son	.	4r	.	4r	.	4r	.
4r	.	.	4A\	Ky-	(4a\	Ky-	(4a\	Ky-
!	!	!	!LO:LB:g=original	!	!	!	!	!
=5	=5	=5	=5	=5	=5	=5	=5	=5
!	!	!LO:DY:b	!	!	!	!	!	!
4.D\	Ky-	f	4.A\	.	4.f\)	.	4.dd\)	.
8D\	-ri-	.	8A\	-ri-	8f\	-ri-	8dd\	-ri-
4D\	-e	.	4A\	-e	4f\	-e	4dd\	-e
4A\	e-	.	4c#X\	e-	4g\	e-	4ee\	e-
=6	=6	=6	=6	=6	=6	=6	=6	=6
4d\	-lei-	.	4d\	-lei-	8g\L	-lei-	8ee\L	-lei-
.	.	.	.	.	8a\J	.	8ff\J	.
4D\	-son	.	4d\	-son	4a\	-son	4ff\	-son
4r	.	.	4r	.	4r	.	4r	.
4BBn/	e-	.	4d\	e-	4g\	e-	4ff\	e-
=7	=7	=7	=7	=7	=7	=7	=7	=7
4C/	-le-	.	4cn\	-le-	4g\	-le-	4ee\	-le-
4D/	-i-	.	4G/	-i-	4f\	-i-	4bn\	-i-
4E\	-son	.	4G/	-son	4e\	-son	4cc\	-son
4F\	e-	.	4A/	e-	4f\	e-	4dd\	e-
=8	=8	=8	=8	=8	=8	=8	=8	=8
*2\right	*	*	*2\right	*	*2\right	*	*2\right	*
2.G\	-le-	.	2Bn\	-le-	2g\	-le-	2g\	-le-
.	.	.	.	.	.	.	16qqa/LL	.
.	.	.	.	.	.	.	16qqg/	.
.	.	.	.	.	.	.	16qqf#X/	.
.	.	.	.	.	.	.	16qqg/JJ	.
.	.	.	4c\	.	4f#X\	.	4a\	.
4GG/	.	.	4d\	-i-	4fn\	-i-	4bn\	-i-
!	!	!	!	!	!LO:LB:g=original	!	!	!
=9	=9	=9	=9	=9	=9	=9	=9	=9
4C/	-i-	.	2G/	-son	2e\	-son,	2cc\	-son,
4C/	-son.	.	.	.	.	.	.	.
!	!	!	!	!	!	!	!LO:LB:g=original	!
2r	.	.	2r	.	2r	.	4r	.
.	.	.	.	.	.	.	4cc\	Chri-
!LO:LB:g=original	!	!	!	!	!	!	!	!
=10	=10	=10	=10	=10	=10	=10	=10	=10
4r	.	.	2r	.	2r	.	4.cc\	-ste
4C/	Chri-	.	.	.	.	.	.	.
.	.	.	.	.	.	.	8cc\	Chri-
4E/	-ste	.	4r	.	4r	.	8.dd\L	-ste
.	.	.	.	.	.	.	16cc\Jk	.
8C/L	e-	.	4c\	Chri-	4g\	Chri-	8.dd\L	e-
8E/J	.	.	.	.	.	.	.	.
.	.	.	.	.	.	.	16cc\Jk	.
!	!	!	!LO:LB:g=original	!	!	!	!	!
=11	=11	=11	=11	=11	=11	=11	=11	=11
2F\	-lei-	.	4.c\	-ste	4.a\	-ste	8cc\L	-lei-
.	.	.	.	.	.	.	8ff\J	.
.	.	.	.	.	.	.	4cc\	-son,
.	.	.	8c\	Chri-	8a\	Chri-	.	.
4FF/	-son	.	4c\	-ste	4a\	-ste	4r	.
4F\	e-	.	4c\	e-	4a\	e-	4cc\	Chri-
=12	=12	=12	=12	=12	=12	=12	=12	=12
4E\	-lei-	.	4c\	-lei-	4g\	-lei-	8.dd\L	-ste
.	.	.	.	.	.	.	16cc\Jk	.
4E\	-son,	.	4c\	-son	4g\	-son	8.dd\L	Chri-
.	.	.	.	.	.	.	16cc\Jk	.
4r	.	.	4r	.	4r	.	4cc\	-ste
4E\	e-	.	4c\	e-	4g\	Chri-	4cc\	e-
=13	=13	=13	=13	=13	=13	=13	=13	=13
4F\	-lei-	.	4.c\	-le-	4.a\	-ste	8cc\L	-lei-
.	.	.	.	.	.	.	8ff\J	.
8F\	-son	.	.	.	.	.	4cc\	-son
8F\	e-	.	8c\	-i-	8a\	Chri-	.	.
!	!	!	!	!	!	!	!LO:LB:g=original	!
8F\	-lei-	.	4c\	-son	[4a\	-ste	4r	.
8F\	-son	.	.	.	.	.	.	.
4r	.	.	4r	.	8a\]	.	(4cc\	Ky-
.	.	.	.	.	8r	.	.	.
!	!	!	!	!	!LO:LB:g=original	!	!	!
=14	=14	=14	=14	=14	=14	=14	=14	=14
4r	.	.	4r	.	4r	.	4.ff\)	.
8F\	Ky-	.	4A\	e-	8f\	Ky-	.	.
8F\	-ri-	.	.	.	8f\	-ri-	8ff\	-ri-
4F\	-e	.	4B-\	-lei-	4g\	-e	4ff\	-e
4F\	e-	.	8c\	-son	4a\	e-	4ff\	e-
.	.	.	8c\	e-	.	.	.	.
!LO:LB:g=original	!	!	!	!	!	!	!	!
=15	=15	=15	=15	=15	=15	=15	=15	=15
4B-\	-lei-	.	4B-\	-le-	4f\	-le-	4dd\	-lei-
4A\	.	.	4c\	-i-	4f\	-i-	4ee-X\	.
4B-\	-son	.	4B-\	-son	4f\	-son	4dd\	-son
4r	.	.	4r	.	4r	.	4dd\	e-
!	!	!	!LO:LB:g=original	!	!	!	!	!
=16	=16	=16	=16	=16	=16	=16	=16	=16
4r	.	.	4r	.	4r	.	2g\	-lei-
4BB-/	Ky-	.	2c\	ky-	4e\	e-	.	.
4AA/	.	.	.	.	4f\	.	4a\	-son
4GG/	-ri-	.	4c\	-ri-	4e\	.	4b-X\	e-
=17	=17	=17	=17	=17	=17	=17	=17	=17
2AA/	-e	.	4f\	-e	4f\	-le-	4cc\	-lei
.	.	.	4e\	e-	4g\	-i-	4cc#X\	son
2BB-/	e-	.	4d\	-le-	4f\	-son	4dd\	.
.	.	.	.	.	.	.	16qqee/LL	.
.	.	.	.	.	.	.	16qqdd/	.
.	.	.	.	.	.	.	16qqcc#X/	.
.	.	.	.	.	.	.	16qqdd/JJ	.
.	.	.	4d\	-i-	4f\	e-	8een\L	e-
.	.	.	.	.	.	.	8ff\J	.
!	!	!	!	!	!	!	!LO:LB:g=original	!
=18	=18	=18	=18	=18	=18	=18	=18	=18
1C	-lei-	.	2c\	-son	2f\	-le-	2g\	-le-
.	.	.	2e\	e-	2g\	-i-	2cc\	-i-
=19	=19	=19	=19	=19	=19	=19	=19	=19
2F\	-son,	.	4c\	-lei-	2f\	-son	2a\	-son
.	.	.	4c\	-son	.	.	.	.
2r	.	.	2r	.	2r	.	4r	.
.	.	.	.	.	.	.	4cc\	e-
!	!	!	!	!	!LO:LB:g=original	!	!	!
=20	=20	=20	=20	=20	=20	=20	=20	=20
4r	.	.	4r	.	4r	.	2ff\	-lei-
8F\	Ky-	.	4A\	e-	4f\	e-	.	.
8F\	-ri-	.	.	.	.	.	.	.
4F\	-e	.	4B-\	-lei-	4g\	-lei-	4ff\	-son
4F\	e-	.	8c\	-son	8a\	-son	4ff\	e-
.	.	.	8c\	e-	8a\	e-	.	.
!LO:LB:g=original	!	!	!	!	!	!	!	!
=21	=21	=21	=21	=21	=21	=21	=21	=21
4BB-/	-lei-	.	4B-\	-le-	2f\	-lei-	4dd\	-lei-
!	!	!	!LO:LB:g=original	!	!	!	!	!
4AA/	.	.	4c\	-i-	.	.	4ee-X\	.
4BB-/	-son	.	4B-\	-son	4f\	-son	4dd\	-son
4r	.	.	4r	.	4r	.	4dd\	e-
=22	=22	=22	=22	=22	=22	=22	=22	=22
4r	.	.	4r	.	4r	.	2g\	-lei-
4BB-/	e-	.	2c\	Ky-	4e\	Ky-	.	.
4AA/	.	.	.	.	4f\	.	4a\	-son
4GG/	.	.	4c\	-ri-	4e\	-ri-	4b-X\	e-
!	!	!	!	!	!	!	!LO:LB:g=original	!
=23	=23	=23	=23	=23	=23	=23	=23	=23
2AA/	-lei-	.	4f\	-e	4f\	-e	4cc\	-le-
.	.	.	4e\	.	4g\	.	4cc#X\	-i-
4BB-/	-son	.	2d\	e-	4f\	.	4dd\	-son
.	.	.	.	.	.	.	16qqee/LL	.
.	.	.	.	.	.	.	16qqdd/	.
.	.	.	.	.	.	.	16qqcc#X/	.
.	.	.	.	.	.	.	16qqdd/JJ	.
4BB-/	e-	.	.	.	4f\	e-	8een\L	e-
.	.	.	.	.	.	.	8ff\J	.
=24	=24	=24	=24	=24	=24	=24	=24	=24
1C	-lei-	.	2c\	-le-	2f\	-le-	2g\	-le-
.	.	.	.	.	.	.	8qq/dd	.
.	.	.	2B-\	-i-	2e\	-i-	2ccn\	-i-
=25	=25	=25	=25	=25	=25	=25	=25	=25
2FF/	-son.	.	2A\	-son.	2c\	-son.	2f/	-son.
2r	.	.	2r	.	2r	.	2r	.
==	==	==	==	==	==	==	==	==
*-	*-	*-	*-	*-	*-	*-	*-	*-
!!!system-decoration: [(s1,s2,s3,s4)]
!!!ENC: Berenika Jozajtis
!!!END: 2023-11-03
!!!ENC: Leszek Kubiak
!!!END: 2024-06-25
